lib/logo_updates/nrk-logo-nrk-tegnspraak-title-below.svg

<svg width="290" height="117" viewBox="0 0 290 117" fill="none" xmlns="http://www.w3.org/2000/svg">
<path d="M0 43V1.00381H13.7802V43H0ZM32.5283 7.68773L40.4532 43H25.3721L15.9092 1.00381H24.3676C26.3072 0.978642 28.1892 1.66237 29.6607 2.92636C31.1347 4.13734 32.1473 5.81844 32.5283 7.68773ZM42.5233 43V1.00381H56.3035V43H42.5233ZM66.7116 16.9743C65.2267 16.9888 63.7656 16.6003 62.4839 15.8504C61.2193 15.1194 60.1688 14.0689 59.438 12.8041C58.6872 11.5222 58.2986 10.0607 58.3134 8.57511C58.2964 7.09861 58.6853 5.64583 59.438 4.3755C60.1766 3.12447 61.2259 2.08533 62.4839 1.35882C63.766 0.609758 65.2269 0.221301 66.7116 0.234844C68.1877 0.218947 69.6399 0.607751 70.9108 1.35882C72.1562 2.09169 73.1943 3.12996 73.9271 4.3755C74.6789 5.64618 75.0677 7.09873 75.0517 8.57511C75.0655 10.0605 74.6769 11.5218 73.9271 12.8041C73.202 14.0633 72.1627 15.113 70.9108 15.8504C69.6398 16.6029 68.1866 16.9918 66.7097 16.9743H66.7116ZM77.1807 43V1.00381H90.9621V43H77.1807ZM108.408 23.9538C108.447 23.9946 108.742 24.4776 109.295 25.403C109.848 26.3283 110.567 27.5114 111.454 28.952C112.341 30.392 113.277 31.9199 114.262 33.536C115.247 35.1521 116.174 36.6803 117.043 38.1202C117.908 39.5602 118.894 41.1867 120 43H104.859C103.912 41.4621 103.055 40.0721 102.286 38.83C101.517 37.5878 100.7 36.2471 99.8334 34.8077C98.9653 33.3698 98.1071 31.9699 97.2587 30.6081C96.4103 29.2464 95.6813 28.0536 95.0714 27.0297C94.459 26.0051 94.0348 25.3149 93.7989 24.9594C93.2139 24.0771 92.8677 23.058 92.7944 22.0019C92.853 20.9883 93.1791 20.0084 93.7397 19.1619C93.9762 18.7676 94.41 18.0675 95.0409 17.062C95.6717 16.0564 96.411 14.8637 97.2587 13.4835C98.1064 12.1034 98.9647 10.6936 99.8334 9.25431C100.702 7.81501 101.519 6.46432 102.286 5.20247C103.056 3.94193 103.914 2.54205 104.859 1.00285H120L108.289 20.1082C107.926 20.6755 107.722 21.3292 107.697 22.0019C107.736 22.7081 107.983 23.3871 108.406 23.9538H108.408Z" fill="white"/>
<path d="M0 66.156H13.5738V103.025H19.7975V66.156H33.313V60.9398H0V66.156Z" fill="white"/>
<path d="M61.8833 76.6179C60.7456 75.1431 59.2443 73.9892 57.5266 73.2689C55.6181 72.49 53.5713 72.1068 51.5103 72.1427C49.4339 72.1074 47.3736 72.5114 45.4643 73.3282C43.7276 74.0886 42.1794 75.2218 40.9298 76.6476C39.6424 78.1454 38.6739 79.89 38.0836 81.7748C37.4082 83.9321 37.0784 86.1827 37.1066 88.4431C37.0227 91.2992 37.6218 94.134 38.8542 96.7119C39.981 98.9457 41.8005 100.755 44.0407 101.869C46.6696 103.107 49.554 103.706 52.4586 103.617C53.8559 103.629 55.2521 103.54 56.6365 103.351C57.7938 103.184 58.9342 102.916 60.0447 102.55C61.1462 102.181 62.2168 101.725 63.2466 101.187L63.6614 96.6229C62.91 96.8995 62.149 97.1762 61.3785 97.4528C60.6079 97.7294 59.8076 97.9764 58.9778 98.1937C58.1407 98.413 57.289 98.5715 56.4291 98.6679C55.5635 98.7665 54.6931 98.816 53.8219 98.8161C52.2655 98.8413 50.712 98.672 49.1975 98.3123C47.9758 98.0205 46.8458 97.4299 45.9088 96.5933C44.9613 95.6916 44.2664 94.5573 43.8935 93.3036C43.506 92.0339 43.2888 90.7184 43.2474 89.3915H64.6681C64.9597 86.9401 64.8496 84.4575 64.3422 82.0415C63.9255 80.0768 63.0864 78.2261 61.8833 76.6179ZM46.9462 78.0405C48.3367 77.1962 49.9426 76.7741 51.5685 76.8254C53.1966 76.744 54.8045 77.2139 56.1326 78.1591C57.3134 79.1009 58.156 80.4012 58.5333 81.8637C58.8288 82.9451 58.9744 84.062 58.966 85.1831H43.3768C43.4874 84.0011 43.7401 82.8369 44.1296 81.7155C44.6358 80.2125 45.6264 78.92 46.9462 78.0405Z" fill="white"/>
<path d="M91.0748 72.9133C90.1693 72.6654 89.2486 72.4773 88.3185 72.3502C87.2573 72.2075 86.1875 72.1382 85.1167 72.1427C83.183 72.1348 81.2677 72.5179 79.4857 73.2689C77.7 74.0248 76.0791 75.1221 74.7141 76.4993C73.2591 77.9844 72.1376 79.7627 71.4244 81.7155C70.5974 84.0043 70.1957 86.4248 70.239 88.858C70.174 91.5348 70.6893 94.1939 71.7494 96.6526C72.6787 98.7553 74.2174 100.531 76.1664 101.75C78.2988 103.008 80.7443 103.635 83.2189 103.558C85.393 103.55 87.5456 103.128 89.5613 102.313C90.7659 101.823 91.9017 101.177 92.94 100.394V102.017C92.9642 103.352 92.7744 104.683 92.3778 105.959C92.0356 107.029 91.4468 108.003 90.6588 108.804C89.8094 109.619 88.7702 110.21 87.635 110.523C86.1586 110.928 84.6311 111.118 83.1004 111.086C81.8827 111.084 80.6661 111.015 79.4561 110.878C78.1852 110.735 76.9268 110.497 75.6911 110.167C74.4187 109.828 73.1711 109.402 71.9569 108.893L72.6089 114.109C73.6989 114.551 74.8182 114.918 75.9588 115.205C77.1583 115.508 78.3755 115.736 79.6033 115.887C80.9012 116.047 82.2077 116.126 83.5154 116.124C86.4327 116.216 89.3322 115.638 91.9915 114.435C94.1508 113.429 95.9579 111.798 97.178 109.752C98.3719 107.65 98.9764 105.264 98.9276 102.847V72.1427L93.1296 73.6345C92.4605 73.3511 91.7742 73.1102 91.0748 72.9133ZM92.1704 96.6526C91.4362 97.0794 90.6738 97.4557 89.8884 97.7788C89.1966 98.063 88.4829 98.291 87.7545 98.4605C87.0449 98.621 86.3195 98.7006 85.592 98.6976C83.8114 98.7619 82.0445 98.3637 80.4637 97.5417C79.0865 96.7555 78.02 95.5213 77.4418 94.0445C76.7272 92.1219 76.3949 90.0782 76.4636 88.0282C76.4369 86.3923 76.6667 84.7622 77.1444 83.1974C77.5327 81.9112 78.201 80.727 79.1014 79.7298C79.978 78.8027 81.0511 78.0837 82.2419 77.6256C83.595 77.1129 85.0332 76.8615 86.48 76.8846C87.4141 76.8839 88.3465 76.9632 89.267 77.1217C90.2094 77.2881 91.14 77.5158 92.0528 77.8034C92.3432 77.8943 92.6456 78.0148 92.9419 78.1254V96.1962C92.6811 96.3523 92.4154 96.5123 92.1704 96.6526Z" fill="white"/>
<path d="M131.351 73.3875C129.59 72.498 127.632 72.0697 125.66 72.1427C123.94 72.1461 122.23 72.416 120.592 72.9429C118.904 73.4806 117.299 74.2485 115.821 75.225C115.249 75.6014 114.698 76.0153 114.161 76.4401V72.202L108.115 73.0911V103.025H114.161V80.5122C114.746 80.1695 115.35 79.8588 115.969 79.5816C116.802 79.213 117.652 78.8866 118.518 78.6036C119.35 78.3316 120.202 78.1235 121.067 77.9812C121.88 77.8459 122.702 77.7765 123.526 77.7738C124.494 77.7513 125.457 77.9019 126.372 78.2183C127.126 78.4901 127.799 78.949 128.328 79.552C128.872 80.2058 129.257 80.9767 129.454 81.8044C129.706 82.8521 129.826 83.9276 129.809 85.0052V103.025H135.855V83.7605C135.934 81.5134 135.551 79.2739 134.729 77.181C134.06 75.5737 132.87 74.2378 131.351 73.3875Z" fill="white"/>
<path d="M163.535 89.3915C162.928 88.7484 162.229 88.1991 161.461 87.7614C160.665 87.3059 159.832 86.9192 158.97 86.6056C158.338 86.408 157.716 86.2006 157.103 85.9832C156.491 85.7659 155.878 85.5683 155.266 85.3904C154.653 85.2126 154.06 85.025 153.488 84.8274C152.95 84.6445 152.426 84.4266 151.917 84.1753C151.429 83.9166 150.964 83.6193 150.524 83.2862C150.118 82.9802 149.776 82.5976 149.517 82.16C149.256 81.7106 149.122 81.1981 149.131 80.6782C149.115 80.1067 149.259 79.5421 149.547 79.0481C149.856 78.5629 150.285 78.165 150.792 77.8923C151.412 77.5516 152.082 77.3114 152.777 77.181C153.646 77.0143 154.53 76.9348 155.415 76.9439C155.849 76.9439 156.323 76.9646 156.837 77.0032C157.352 77.0417 157.913 77.1128 158.527 77.2106C159.14 77.3084 159.751 77.4389 160.363 77.5959C160.976 77.753 161.598 77.9318 162.232 78.1294C162.818 78.3095 163.391 78.5273 163.949 78.7814L164.365 73.9802C163.614 73.664 162.873 73.3875 162.143 73.1504C161.413 72.9138 160.671 72.7159 159.92 72.5576C159.186 72.4022 158.444 72.2934 157.697 72.2316C156.965 72.1724 156.244 72.1427 155.533 72.1427C153.896 72.126 152.263 72.3151 150.673 72.7058C149.313 73.0361 148.02 73.5975 146.85 74.3655C145.789 75.067 144.922 76.0253 144.331 77.1514C143.711 78.3921 143.406 79.766 143.442 81.1524C143.423 82.1509 143.584 83.1447 143.917 84.0865C144.198 84.8769 144.619 85.6099 145.161 86.2499C145.688 86.8547 146.297 87.3833 146.969 87.8207C147.669 88.28 148.414 88.6673 149.192 88.9765C149.626 89.1346 150.081 89.2927 150.555 89.4508C151.03 89.6088 151.495 89.757 151.948 89.8953C152.402 90.0346 152.846 90.1719 153.281 90.3102C153.716 90.4486 154.141 90.5868 154.555 90.7251C154.97 90.8635 155.375 90.9919 155.772 91.1104C156.301 91.2983 156.816 91.5262 157.312 91.7921C157.747 92.0224 158.155 92.3007 158.528 92.6219C158.856 92.9085 159.118 93.2622 159.297 93.6592C159.479 94.0696 159.57 94.5144 159.565 94.9632C159.586 95.4017 159.509 95.8395 159.34 96.2445C159.171 96.6495 158.913 97.0116 158.586 97.3046C157.852 97.9178 156.976 98.3358 156.037 98.5197C154.938 98.7625 153.815 98.8817 152.689 98.8754C151.985 98.8705 151.283 98.821 150.585 98.7271C149.814 98.6297 149.004 98.4914 148.155 98.3122C147.305 98.1331 146.436 97.9158 145.546 97.6602C144.657 97.4041 143.759 97.1176 142.85 96.8008L143.087 101.839C144.113 102.195 145.051 102.481 145.902 102.699C146.753 102.916 147.563 103.104 148.333 103.262C149.075 103.416 149.828 103.515 150.585 103.558C151.315 103.598 152.056 103.617 152.808 103.617C154.461 103.626 156.11 103.457 157.727 103.113C159.15 102.824 160.513 102.293 161.757 101.543C162.879 100.858 163.807 99.8995 164.455 98.7568C165.134 97.5027 165.471 96.0922 165.432 94.6669C165.457 93.6268 165.286 92.5913 164.928 91.6143C164.61 90.7913 164.137 90.0368 163.535 89.3915Z" fill="white"/>
<path d="M195.395 74.0098C193.268 72.7073 190.805 72.058 188.312 72.1427C186.832 72.1499 185.359 72.339 183.926 72.7058C182.376 73.0995 180.883 73.687 179.48 74.4544C179.202 74.6055 178.926 74.7735 178.65 74.9434V72.2019L172.604 73.1504V115.472H178.65V102.202C178.691 102.218 178.729 102.237 178.769 102.254C179.864 102.709 181.008 103.037 182.177 103.232C183.558 103.46 184.956 103.569 186.356 103.558C189.025 103.604 191.656 102.928 193.973 101.602C196.247 100.253 198.096 98.2917 199.307 95.9413C200.707 93.139 201.39 90.033 201.293 86.902C201.348 84.2548 200.833 81.6267 199.783 79.1963C198.855 77.0783 197.33 75.2762 195.395 74.0098ZM193.825 93.8371C193.113 95.4113 191.919 96.7188 190.416 97.5713C188.746 98.4462 186.878 98.875 184.993 98.8161C184.09 98.8165 183.188 98.7471 182.296 98.6086C181.359 98.4592 180.437 98.2312 179.539 97.9269C179.255 97.8281 178.947 97.7155 178.65 97.6069V78.9009C178.729 78.8644 178.809 78.8169 178.888 78.7814C179.756 78.3862 180.566 78.0503 181.318 77.7737C182.029 77.5083 182.763 77.3099 183.511 77.181C184.177 77.0664 184.851 77.0069 185.526 77.0031C187.354 76.9426 189.167 77.34 190.802 78.159C192.231 78.9372 193.35 80.182 193.973 81.6858C194.727 83.6094 195.08 85.6668 195.011 87.7318C195.074 89.8297 194.669 91.9153 193.825 93.8371Z" fill="white"/>
<path d="M221.029 72.5853C219.921 72.8824 218.863 73.3418 217.889 73.9486C216.877 74.5796 215.942 75.3255 215.102 76.1714C214.963 76.3107 214.826 76.4677 214.688 76.6149V72.2L208.641 73.0891V103.023H214.688V80.6288C215.138 80.3151 215.602 80.0242 216.081 79.7575C216.674 79.4309 217.288 79.1438 217.919 78.898C218.53 78.6609 219.153 78.4534 219.786 78.2756C220.436 78.0946 221.1 77.9657 221.77 77.8903C222.489 77.8105 223.213 77.7907 223.935 77.831L224.646 72.2592C223.431 72.172 222.21 72.2821 221.029 72.5853Z" fill="white"/>
<path d="M255.824 99.2902C255.391 99.3299 254.955 99.2645 254.552 99.0993C254.15 98.9342 253.793 98.6744 253.513 98.3419C252.963 97.3921 252.734 96.2904 252.861 95.2004L252.979 82.9898C252.992 81.7098 252.833 80.4338 252.505 79.1963C252.217 78.1111 251.735 77.0869 251.083 76.1733C250.423 75.2798 249.586 74.533 248.623 73.9802C247.504 73.3452 246.295 72.8855 245.037 72.6169C243.498 72.2845 241.928 72.1255 240.354 72.1427C239.105 72.1421 237.858 72.2213 236.62 72.3798C235.449 72.527 234.291 72.7548 233.152 73.0614C232.096 73.3479 231.057 73.6942 230.04 74.0987L229.329 79.1371C230.317 78.7814 231.255 78.485 232.144 78.2479C233.033 78.0108 233.893 77.8133 234.723 77.6552C235.536 77.4999 236.357 77.391 237.183 77.3292C237.992 77.2699 238.792 77.2402 239.583 77.2402C240.792 77.2148 241.998 77.3544 243.169 77.6552C244.024 77.869 244.809 78.2975 245.451 78.9C246.023 79.4861 246.432 80.2114 246.637 81.0041C246.89 81.9814 247.009 82.9883 246.993 83.9975L246.986 85.4853L240.057 85.9536C237.688 86.0195 235.353 86.5428 233.182 87.4947C231.557 88.2056 230.154 89.3422 229.121 90.7844C228.245 92.0678 227.78 93.5872 227.788 95.141C227.777 96.599 228.133 98.0363 228.825 99.3199C229.55 100.638 230.641 101.719 231.967 102.432C233.584 103.273 235.391 103.681 237.212 103.617C238.919 103.657 240.618 103.375 242.221 102.787C243.607 102.245 244.875 101.44 245.955 100.416C246.365 100.023 246.754 99.6087 247.121 99.1747C247.236 99.7883 247.453 100.378 247.763 100.92C248.292 101.828 249.104 102.536 250.075 102.936C251.148 103.367 252.297 103.578 253.453 103.558C253.809 103.558 254.155 103.548 254.491 103.528C254.821 103.508 255.148 103.459 255.469 103.38C255.785 103.3 256.07 103.232 256.328 103.173C256.56 103.121 256.788 103.052 257.01 102.965L257.662 98.9939C257.335 99.1062 256.997 99.1856 256.654 99.231C256.379 99.2677 256.102 99.2875 255.824 99.2902ZM245.955 96.6229C245.313 97.1312 244.617 97.5684 243.881 97.9269C243.147 98.2832 242.37 98.5422 241.57 98.6975C240.74 98.8574 239.896 98.9368 239.05 98.9346C238.084 98.9622 237.123 98.7802 236.234 98.4012C235.511 98.0871 234.901 97.5598 234.486 96.8896C234.075 96.1792 233.87 95.3686 233.893 94.5483C233.836 93.5601 234.107 92.5807 234.664 91.7624C235.309 91.0093 236.183 90.4887 237.153 90.2806C238.667 89.9237 240.221 89.7643 241.776 89.8064H246.967L246.94 95.6894C246.639 96.0283 246.31 96.3406 245.955 96.6229Z" fill="white"/>
<path d="M236.886 67.4008C238.006 67.9305 239.234 68.1942 240.472 68.1713C241.743 68.1962 243.002 67.9221 244.147 67.3711C245.18 66.8688 246.052 66.0889 246.667 65.1187C247.3 64.0752 247.619 62.8713 247.585 61.6512C247.623 60.7661 247.468 59.8834 247.13 59.0645C246.792 58.2456 246.28 57.5101 245.629 56.9092C244.24 55.6925 242.436 55.0559 240.591 55.131C239.356 55.117 238.133 55.3697 237.005 55.8719C235.946 56.3433 235.049 57.1164 234.426 58.0947C233.767 59.1826 233.437 60.4388 233.478 61.7104C233.437 62.9408 233.756 64.1564 234.397 65.2076C235.008 66.1548 235.87 66.914 236.886 67.4008ZM237.835 58.8653C238.209 58.5336 238.645 58.2791 239.118 58.1163C239.591 57.9536 240.092 57.8858 240.591 57.9169C241.326 57.8837 242.055 58.0584 242.695 58.4207C243.213 58.739 243.625 59.2029 243.881 59.7544C244.146 60.3508 244.278 60.9983 244.266 61.6512C244.278 62.3072 244.136 62.9568 243.851 63.5479C243.583 64.0928 243.16 64.5464 242.636 64.852C241.99 65.1956 241.263 65.3593 240.532 65.3261C239.837 65.3467 239.147 65.2046 238.516 64.9112C237.974 64.6473 237.535 64.209 237.272 63.6665C236.978 63.0361 236.836 62.3461 236.857 61.6512C236.82 61.1446 236.888 60.6359 237.057 60.1567C237.225 59.6775 237.49 59.2379 237.835 58.8653Z" fill="white"/>
<path d="M281.548 103.025H289.373L274.995 86.8229L289.076 72.7947H281.667L271.524 83.9383H269.338V58.2726L263.292 59.1616V103.025H269.338V88.5024H269.437L281.548 103.025Z" fill="white"/>
</svg>

<svg xmlns="http://www.w3.org/2000/svg" viewBox="0 0 290 117"><path fill="#fff" d="M0 43V1.004h13.78V43H0ZM32.528 7.688 40.453 43h-15.08L15.908 1.004h8.459a7.965 7.965 0 0 1 5.293 1.922 8.31 8.31 0 0 1 2.867 4.762ZM42.523 43V1.004h13.78V43h-13.78Zm24.189-26.026a8.213 8.213 0 0 1-4.228-1.124 8.336 8.336 0 0 1-3.046-3.046 8.206 8.206 0 0 1-1.125-4.229 8.056 8.056 0 0 1 1.125-4.2 8.437 8.437 0 0 1 3.046-3.016A8.232 8.232 0 0 1 66.712.235a8.083 8.083 0 0 1 4.199 1.124 8.503 8.503 0 0 1 3.016 3.016 8.075 8.075 0 0 1 1.125 4.2 8.226 8.226 0 0 1-1.125 4.23 8.4 8.4 0 0 1-3.016 3.045 8.059 8.059 0 0 1-4.201 1.124h.002ZM77.18 43V1.004h13.781V43H77.181Zm31.227-19.046c.039.04.334.524.887 1.449.553.925 1.272 2.108 2.159 3.549a1143.28 1143.28 0 0 1 5.589 9.168A854.89 854.89 0 0 0 120 43h-15.141c-.947-1.538-1.804-2.928-2.573-4.17a382.214 382.214 0 0 1-2.453-4.022 351.934 351.934 0 0 0-2.574-4.2 213.445 213.445 0 0 1-2.188-3.578 62.753 62.753 0 0 0-1.272-2.07 6.119 6.119 0 0 1-1.005-2.958 5.744 5.744 0 0 1 .946-2.84c.236-.394.67-1.095 1.3-2.1.632-1.006 1.371-2.198 2.219-3.579.847-1.38 1.706-2.79 2.574-4.229.869-1.439 1.686-2.79 2.453-4.052.77-1.26 1.628-2.66 2.573-4.2H120l-11.711 19.106a3.773 3.773 0 0 0-.592 1.894c.039.706.286 1.385.709 1.952h.002ZM0 66.156h13.574v36.869h6.223V66.156h13.516V60.94H0v5.216ZM61.883 76.618a10.755 10.755 0 0 0-4.356-3.35 15.22 15.22 0 0 0-6.017-1.125 14.735 14.735 0 0 0-6.046 1.185 12.92 12.92 0 0 0-4.534 3.32 14.526 14.526 0 0 0-2.846 5.127 21.424 21.424 0 0 0-.977 6.668 17.95 17.95 0 0 0 1.747 8.269 11.588 11.588 0 0 0 5.187 5.157 18.433 18.433 0 0 0 8.418 1.748 29.042 29.042 0 0 0 4.177-.266 20.025 20.025 0 0 0 3.409-.801 22.023 22.023 0 0 0 3.202-1.363l.414-4.564c-.751.276-1.512.553-2.282.83-.771.276-1.571.523-2.401.74-.837.22-1.689.379-2.549.475-.866.098-1.736.148-2.607.148a18.702 18.702 0 0 1-4.625-.504 7.583 7.583 0 0 1-3.288-1.719 7.489 7.489 0 0 1-2.015-3.29 15.005 15.005 0 0 1-.647-3.912h21.421a22.71 22.71 0 0 0-.326-7.35 13.852 13.852 0 0 0-2.459-5.423ZM46.946 78.04a8.396 8.396 0 0 1 4.623-1.215 7.247 7.247 0 0 1 4.564 1.334 6.964 6.964 0 0 1 2.4 3.705c.296 1.081.441 2.198.433 3.32h-15.59c.111-1.183.364-2.347.754-3.468a7.164 7.164 0 0 1 2.816-3.675ZM91.075 72.913a21.422 21.422 0 0 0-2.757-.563 23.29 23.29 0 0 0-3.201-.207 14.348 14.348 0 0 0-5.631 1.126 14.891 14.891 0 0 0-4.772 3.23 14.62 14.62 0 0 0-3.29 5.217 19.972 19.972 0 0 0-1.185 7.142 18.55 18.55 0 0 0 1.51 7.795 11.491 11.491 0 0 0 4.417 5.097 13.079 13.079 0 0 0 7.053 1.808 17.087 17.087 0 0 0 6.342-1.245 15.001 15.001 0 0 0 3.379-1.919v1.623a12.518 12.518 0 0 1-.562 3.942 7.171 7.171 0 0 1-1.72 2.845 7.09 7.09 0 0 1-3.023 1.719 15.887 15.887 0 0 1-4.535.563 32.871 32.871 0 0 1-3.644-.208 25.753 25.753 0 0 1-3.765-.711 28.912 28.912 0 0 1-3.734-1.274l.652 5.216c1.09.442 2.21.809 3.35 1.096 1.2.303 2.416.531 3.644.682a31.58 31.58 0 0 0 3.912.237 19.104 19.104 0 0 0 8.477-1.689 11.878 11.878 0 0 0 5.186-4.683 13.433 13.433 0 0 0 1.75-6.905V72.143l-5.798 1.492a17.265 17.265 0 0 0-2.055-.722Zm1.095 23.74c-.734.426-1.496.803-2.282 1.126-.691.284-1.405.512-2.134.681-.71.161-1.434.24-2.162.238a10.31 10.31 0 0 1-5.128-1.156 6.94 6.94 0 0 1-3.022-3.498 15.754 15.754 0 0 1-.978-6.016 15.67 15.67 0 0 1 .68-4.83 9.098 9.098 0 0 1 1.957-3.468 8.544 8.544 0 0 1 3.14-2.104 11.446 11.446 0 0 1 4.239-.741c.934-.001 1.867.078 2.787.237a22 22 0 0 1 2.786.681c.29.091.593.212.889.322v18.071c-.26.156-.527.316-.772.457ZM131.351 73.388a11.665 11.665 0 0 0-5.691-1.245 16.66 16.66 0 0 0-5.068.8 19.257 19.257 0 0 0-4.771 2.282 23.63 23.63 0 0 0-1.66 1.215v-4.238l-6.046.89v29.933h6.046V80.512a18.69 18.69 0 0 1 1.808-.93 27.1 27.1 0 0 1 2.549-.978c.832-.272 1.684-.48 2.549-.623a15.281 15.281 0 0 1 2.459-.207 8.127 8.127 0 0 1 2.846.444c.754.272 1.427.731 1.956 1.334a5.519 5.519 0 0 1 1.126 2.252c.252 1.048.372 2.124.355 3.201v18.02h6.046V83.76a16.42 16.42 0 0 0-1.126-6.579 7.77 7.77 0 0 0-3.378-3.793ZM163.535 89.391a8.937 8.937 0 0 0-2.074-1.63 16.091 16.091 0 0 0-2.491-1.155 52.076 52.076 0 0 1-1.867-.623 33.13 33.13 0 0 0-1.837-.593 37.097 37.097 0 0 1-1.778-.563c-.538-.183-1.062-.4-1.571-.652a10.298 10.298 0 0 1-1.393-.889 3.893 3.893 0 0 1-1.007-1.126 2.853 2.853 0 0 1-.386-1.482 3.066 3.066 0 0 1 .416-1.63 3.366 3.366 0 0 1 1.245-1.156 6.68 6.68 0 0 1 1.985-.711 13.28 13.28 0 0 1 2.638-.237 19.135 19.135 0 0 1 3.112.267c.613.097 1.224.228 1.836.385.613.157 1.235.336 1.869.533.586.18 1.159.398 1.717.652l.416-4.8a28.098 28.098 0 0 0-2.222-.83 21.78 21.78 0 0 0-2.223-.593 17.825 17.825 0 0 0-2.223-.326 26.835 26.835 0 0 0-2.164-.09 19.533 19.533 0 0 0-4.86.564c-1.36.33-2.653.891-3.823 1.66a7.543 7.543 0 0 0-2.519 2.785 8.459 8.459 0 0 0-.889 4.001 8.326 8.326 0 0 0 .475 2.934c.281.79.702 1.524 1.244 2.164a8.675 8.675 0 0 0 1.808 1.57c.7.46 1.445.847 2.223 1.157a52.792 52.792 0 0 0 2.756.918 93.377 93.377 0 0 1 2.607.83c.415.138.82.267 1.217.385a11.18 11.18 0 0 1 1.54.682c.435.23.843.509 1.216.83a3.032 3.032 0 0 1 1.037 2.341 2.96 2.96 0 0 1-.979 2.342 5.676 5.676 0 0 1-2.549 1.215 15.127 15.127 0 0 1-3.348.355 16.641 16.641 0 0 1-2.104-.148 29.998 29.998 0 0 1-2.43-.415c-.85-.179-1.719-.396-2.609-.652a51.57 51.57 0 0 1-2.696-.86l.237 5.039c1.026.356 1.964.642 2.815.86a52.91 52.91 0 0 0 2.431.563c.742.154 1.495.253 2.252.296.73.04 1.471.059 2.223.059 1.653.009 3.302-.16 4.919-.504a12.701 12.701 0 0 0 4.03-1.57 7.733 7.733 0 0 0 2.698-2.786 8.123 8.123 0 0 0 .977-4.09 8.293 8.293 0 0 0-.504-3.053 6.91 6.91 0 0 0-1.393-2.223ZM195.395 74.01a12.735 12.735 0 0 0-7.083-1.867 18.04 18.04 0 0 0-4.386.563c-1.55.394-3.043.981-4.446 1.748-.278.152-.554.32-.83.49v-2.742l-6.046.948v42.322h6.046v-13.27c.041.016.079.035.119.052 1.095.455 2.239.783 3.408.978 1.381.228 2.779.337 4.179.326 2.669.046 5.3-.63 7.617-1.956a14.082 14.082 0 0 0 5.334-5.66 18.916 18.916 0 0 0 1.986-9.04 18.463 18.463 0 0 0-1.51-7.706 11.913 11.913 0 0 0-4.388-5.186Zm-1.57 19.827a8.16 8.16 0 0 1-3.409 3.734 10.949 10.949 0 0 1-5.423 1.245 17.53 17.53 0 0 1-2.697-.207 16.862 16.862 0 0 1-2.757-.682 61.755 61.755 0 0 1-.889-.32V78.9c.079-.037.159-.084.238-.12a35.37 35.37 0 0 1 2.43-1.007 12.19 12.19 0 0 1 4.208-.77c1.828-.061 3.641.336 5.276 1.155a7.117 7.117 0 0 1 3.171 3.527 15.178 15.178 0 0 1 1.038 6.046 14.128 14.128 0 0 1-1.186 6.105ZM221.029 72.585a11.639 11.639 0 0 0-3.14 1.364 15.441 15.441 0 0 0-2.787 2.222c-.139.14-.276.297-.414.444V72.2l-6.047.89v29.933h6.047V80.629c.45-.314.914-.605 1.393-.872a15.386 15.386 0 0 1 1.838-.859 20.435 20.435 0 0 1 1.867-.622 12.689 12.689 0 0 1 4.149-.445l.711-5.572a11.292 11.292 0 0 0-3.617.326ZM255.824 99.29a2.702 2.702 0 0 1-2.311-.948 5.093 5.093 0 0 1-.652-3.142l.118-12.21a14.241 14.241 0 0 0-.474-3.794 9.32 9.32 0 0 0-1.422-3.023 8.026 8.026 0 0 0-2.46-2.193 12.593 12.593 0 0 0-3.586-1.363 21.085 21.085 0 0 0-4.683-.474 29.29 29.29 0 0 0-3.734.237 25.642 25.642 0 0 0-3.468.681 28.885 28.885 0 0 0-3.112 1.038l-.711 5.038a34.863 34.863 0 0 1 5.394-1.482 21.762 21.762 0 0 1 2.46-.326c.809-.06 1.609-.089 2.4-.089a13.289 13.289 0 0 1 3.586.415c.855.214 1.64.642 2.282 1.245a4.696 4.696 0 0 1 1.186 2.104c.253.977.372 1.984.356 2.993l-.007 1.488-6.929.469c-2.369.066-4.704.589-6.875 1.54a9.853 9.853 0 0 0-4.061 3.29 7.658 7.658 0 0 0-1.333 4.357 8.667 8.667 0 0 0 1.037 4.179 7.804 7.804 0 0 0 3.142 3.112 10.563 10.563 0 0 0 5.245 1.185c1.707.04 3.406-.242 5.009-.83a11.53 11.53 0 0 0 3.734-2.371c.41-.393.799-.807 1.166-1.241.115.613.332 1.203.642 1.745a4.784 4.784 0 0 0 2.312 2.016 8.662 8.662 0 0 0 3.378.622c.356 0 .702-.01 1.038-.03.33-.02.657-.069.978-.148.316-.08.601-.148.859-.207.232-.052.46-.121.682-.208l.652-3.971a5.21 5.21 0 0 1-1.008.237 6.77 6.77 0 0 1-.83.06Zm-9.869-2.667c-.642.508-1.338.945-2.074 1.304a9.39 9.39 0 0 1-2.311.77c-.83.16-1.674.24-2.52.238a6.694 6.694 0 0 1-2.816-.534 3.87 3.87 0 0 1-1.748-1.511 4.427 4.427 0 0 1-.593-2.342 4.491 4.491 0 0 1 .771-2.786 4.527 4.527 0 0 1 2.489-1.481 18.023 18.023 0 0 1 4.623-.475h5.191l-.027 5.883c-.301.34-.63.652-.985.934ZM236.886 67.4c1.12.53 2.348.794 3.586.771a8.11 8.11 0 0 0 3.675-.8 6.187 6.187 0 0 0 2.52-2.252 6.345 6.345 0 0 0 .918-3.468 6.094 6.094 0 0 0-1.956-4.742 7.202 7.202 0 0 0-5.038-1.778 8.577 8.577 0 0 0-3.586.74 5.905 5.905 0 0 0-2.579 2.224 6.571 6.571 0 0 0-.948 3.615 6.313 6.313 0 0 0 .919 3.498 6.098 6.098 0 0 0 2.489 2.193Zm.949-8.535a3.795 3.795 0 0 1 2.756-.948 3.912 3.912 0 0 1 2.104.504c.518.318.93.782 1.186 1.333a4.47 4.47 0 0 1 .385 1.897 4.19 4.19 0 0 1-.415 1.897 3.088 3.088 0 0 1-1.215 1.304 4.087 4.087 0 0 1-2.104.474 4.467 4.467 0 0 1-2.016-.415 2.692 2.692 0 0 1-1.244-1.245 4.45 4.45 0 0 1-.415-2.015 3.706 3.706 0 0 1 .978-2.786ZM281.548 103.025h7.825l-14.378-16.202 14.081-14.028h-7.409l-10.143 11.143h-2.186V58.273l-6.046.889v43.863h6.046V88.502h.099l12.111 14.523Z"/></svg>
